svg/car_brake_abs.svg

<svg xmlns="http://www.w3.org/2000/svg" viewBox="0 0 24 24"><path d="M24 12c0 3.31-1.34 6.31-3.5 8.5l-1.08-1.08c1.9-1.92 3.08-4.52 3.08-7.42 0-2.89-1.18-5.5-3.08-7.42L20.5 3.5C22.66 5.69 24 8.69 24 12m-4-2.4V8h-3.2c-.88 0-1.6.72-1.6 1.6v1.6a1.6 1.6 0 0 0 1.6 1.6h1.6v1.6h-3.2V16h3.2c.88 0 1.6-.72 1.6-1.6v-1.6a1.6 1.6 0 0 0-1.6-1.6h-1.6V9.6zM8.42 6c1.05-.63 2.27-1 3.58-1s2.53.37 3.58 1h3.11C17.05 4.16 14.66 3 12 3S6.95 4.16 5.31 6zm4.78 6c.64 0 1.2.56 1.2 1.2v1.2a1.6 1.6 0 0 1-1.6 1.6H9.6V8h3.2a1.6 1.6 0 0 1 1.6 1.6v1.2c0 .64-.56 1.2-1.2 1.2m-.4.8h-1.6v1.6h1.6zm0-3.2h-1.6v1.6h1.6zM4.58 4.58 3.5 3.5C1.34 5.69 0 8.69 0 12s1.34 6.31 3.5 8.5l1.08-1.08C2.68 17.5 1.5 14.9 1.5 12c0-2.89 1.18-5.5 3.08-7.42M7.2 16v-3.2H5.6V16H4V9.6A1.6 1.6 0 0 1 5.6 8h1.6c.88 0 1.6.72 1.6 1.6V16zm0-4.8V9.6H5.6v1.6zm8.38 6.8c-1.05.63-2.27 1-3.58 1a6.93 6.93 0 0 1-3.58-1H5.31c1.64 1.84 4.03 3 6.69 3s5.05-1.16 6.69-3z"/></svg>

<?xml version="1.0" encoding="UTF-8"?><!DOCTYPE svg PUBLIC "-//W3C//DTD SVG 1.1//EN" "http://www.w3.org/Graphics/SVG/1.1/DTD/svg11.dtd"><svg xmlns="http://www.w3.org/2000/svg" xmlns:xlink="http://www.w3.org/1999/xlink" version="1.1" id="mdi-car-brake-abs" width="24" height="24" viewBox="0 0 24 24"><path d="M24,12C24,15.31 22.66,18.31 20.5,20.5L19.42,19.42C21.32,17.5 22.5,14.9 22.5,12C22.5,9.11 21.32,6.5 19.42,4.58L20.5,3.5C22.66,5.69 24,8.69 24,12M20,9.6V8H16.8C15.92,8 15.2,8.72 15.2,9.6V11.2A1.6,1.6 0 0,0 16.8,12.8H18.4V14.4H15.2V16H18.4C19.28,16 20,15.28 20,14.4V12.8A1.6,1.6 0 0,0 18.4,11.2H16.8V9.6H20M8.42,6C9.47,5.37 10.69,5 12,5C13.31,5 14.53,5.37 15.58,6H18.69C17.05,4.16 14.66,3 12,3C9.34,3 6.95,4.16 5.31,6H8.42M13.2,12C13.84,12 14.4,12.56 14.4,13.2V14.4A1.6,1.6 0 0,1 12.8,16H9.6V8H12.8A1.6,1.6 0 0,1 14.4,9.6V10.8C14.4,11.44 13.84,12 13.2,12M12.8,12.8H11.2V14.4H12.8V12.8M12.8,9.6H11.2V11.2H12.8V9.6M4.58,4.58L3.5,3.5C1.34,5.69 0,8.69 0,12C0,15.31 1.34,18.31 3.5,20.5L4.58,19.42C2.68,17.5 1.5,14.9 1.5,12C1.5,9.11 2.68,6.5 4.58,4.58M7.2,16V12.8H5.6V16H4V9.6A1.6,1.6 0 0,1 5.6,8H7.2C8.08,8 8.8,8.72 8.8,9.6V16H7.2M7.2,11.2V9.6H5.6V11.2H7.2M15.58,18C14.53,18.63 13.31,19 12,19C10.69,19 9.47,18.63 8.42,18H5.31C6.95,19.84 9.34,21 12,21C14.66,21 17.05,19.84 18.69,18H15.58Z" /></svg>
